_includes/icons/color-markdown.svg

<svg fill="#666" height="50" viewBox="0 0 48 48" width="50" xmlns="http://www.w3.org/2000/svg"><path d="m44.125 39h-40.25c-2.136719 0-3.875-1.703125-3.875-3.800781v-22.398438c0-2.097656 1.738281-3.800781 3.875-3.800781h40.25c2.136719 0 3.875 1.703125 3.875 3.800781v22.398438c0 2.097656-1.738281 3.800781-3.875 3.800781z" fill="#455a64"/><path d="m20.957031 16-4.957031 6.71875-5.042969-6.71875h-3.957031v16h3.957031v-10.667969l5.042969 6.667969 5-6.667969v10.667969h3.957031v-16zm17 8v-8h-3.957031v8h-5.042969l7.042969 8 6.957031-8z" fill="#fff"/></svg>

<svg xmlns="http://www.w3.org/2000/svg" viewBox="0 0 48 48" width="50" height="50" fill="#666"><path d="M 44.125 39 L 3.875 39 C 1.738281 39 0 37.296875 0 35.199219 L 0 12.800781 C 0 10.703125 1.738281 9 3.875 9 L 44.125 9 C 46.261719 9 48 10.703125 48 12.800781 L 48 35.199219 C 48 37.296875 46.261719 39 44.125 39 Z" fill="#455a64"/><path d="M 20.957031 16 L 16 22.71875 L 10.957031 16 L 7 16 L 7 32 L 10.957031 32 L 10.957031 21.332031 L 16 28 L 21 21.332031 L 21 32 L 24.957031 32 L 24.957031 16 Z M 37.957031 24 L 37.957031 16 L 34 16 L 34 24 L 28.957031 24 L 36 32 L 42.957031 24 Z" fill="#fff"/></svg>
